svg/300/rounded/other_houses.svg

<svg xmlns="http://www.w3.org/2000/svg" width="48" height="48" viewBox="0 -960 960 960"><path d="M180.001-197.694v-331.768l-65.385 50.616q-7.655 6.076-16.596 4.461Q89.079-476 83.002-483.5t-4.742-16.632q1.336-9.131 9.203-15.175l357.691-272.845q8-5.615 16.811-8.923t18.02-3.308q9.209 0 17.843 3.308 8.633 3.308 16.633 8.923l358.691 273.845q7.633 5.696 8.778 14.809 1.145 9.113-4.932 17.176-6.077 6.937-14.692 8.245-8.615 1.307-16.307-4.769l-66-50.616v331.768q0 23.596-17.048 40.645-17.049 17.048-40.645 17.048H237.694q-23.596 0-40.645-17.048-17.048-17.049-17.048-40.645Zm57.693 12.309h484.612q5.385 0 8.847-3.462 3.462-3.462 3.462-8.847v-366.229L487.308-752.307q-3.077-2.692-7.308-2.692t-7.308 2.692L225.385-563.923v366.229q0 5.385 3.462 8.847 3.462 3.462 8.847 3.462ZM320-364.616q14.692 0 25.038-10.346T355.384-400q0-14.692-10.346-25.038T320-435.384q-14.692 0-25.038 10.346T284.616-400q0 14.692 10.346 25.038T320-364.616Zm160 0q14.692 0 25.038-10.346T515.384-400q0-14.692-10.346-25.038T480-435.384q-14.692 0-25.038 10.346T444.616-400q0 14.692 10.346 25.038T480-364.616Zm160 0q14.692 0 25.038-10.346T675.384-400q0-14.692-10.346-25.038T640-435.384q-14.692 0-25.038 10.346T604.616-400q0 14.692 10.346 25.038T640-364.616ZM237.694-185.385h-12.309 509.23-496.921Z"/></svg>

<svg xmlns="http://www.w3.org/2000/svg" width="48" height="48" viewBox="0 -960 960 960"><path d="M180-197.69v-331.77l-65.38 50.61q-7.66 6.08-16.6 4.46Q89.08-476 83-483.5q-6.07-7.5-4.74-16.63 1.34-9.13 9.2-15.18l357.69-272.84q8-5.62 16.81-8.93 8.82-3.3 18.02-3.3 9.21 0 17.85 3.3 8.63 3.31 16.63 8.93l358.69 273.84q7.64 5.7 8.78 14.81 1.14 9.12-4.93 17.18-6.08 6.93-14.69 8.24-8.62 1.31-16.31-4.77l-66-50.61v331.77q0 23.59-17.05 40.64T722.31-140H237.69q-23.59 0-40.64-17.05T180-197.69Zm57.69 12.3h484.62q5.38 0 8.84-3.46t3.46-8.84v-366.23l-247.3-188.39Q484.23-755 480-755q-4.23 0-7.31 2.69l-247.3 188.39v366.23q0 5.38 3.46 8.84t8.84 3.46ZM320-364.62q14.69 0 25.04-10.34 10.34-10.35 10.34-25.04t-10.34-25.04q-10.35-10.34-25.04-10.34t-25.04 10.34q-10.34 10.35-10.34 25.04t10.34 25.04q10.35 10.34 25.04 10.34Zm160 0q14.69 0 25.04-10.34 10.34-10.35 10.34-25.04t-10.34-25.04q-10.35-10.34-25.04-10.34t-25.04 10.34q-10.34 10.35-10.34 25.04t10.34 25.04q10.35 10.34 25.04 10.34Zm160 0q14.69 0 25.04-10.34 10.34-10.35 10.34-25.04t-10.34-25.04q-10.35-10.34-25.04-10.34t-25.04 10.34q-10.34 10.35-10.34 25.04t10.34 25.04q10.35 10.34 25.04 10.34ZM237.69-185.39h-12.3 509.22-496.92Z"/></svg>
